X: 3143
T: Beautiful Little Ashbury, The
R: slide
M: 12/8
K: Gmajor
d2 B d2B A2G G2A|B2D GAB c3 e3|
d2 B d2B A2G G2A|1 B2d A2G E3 g2e:|2 B2d A2B g2e d2B||
c3c2e d3d2f|g2b a2g ege d2B|
c3c2e d3d2f|1 g2b a2g bag a2g:|2 g2b a2g e3 g2e||

